tools/download-figma-icons/icons/outlined-large/megaphone.svg

<svg width="64" height="64" viewBox="0 0 64 64" fill="none" xmlns="http://www.w3.org/2000/svg">
<path fill-rule="evenodd" clip-rule="evenodd" d="M21.1456 36.5538L40.7586 45.1187L41.1206 15.7428L21.3016 23.8208L21.1456 36.5538ZM5.70666 49.7847L10.9957 49.8497L15.8756 38.9838L10.5867 38.9198L5.70666 49.7847ZM3.00567 29.7618L3.00067 30.1638C2.96167 33.2848 5.47066 35.8558 8.59166 35.8938L9.62765 35.9068H9.64065L12.2076 35.9378L18.1516 36.0118L18.2236 30.1498L18.2956 24.2888L8.73665 24.1708C8.72481 24.1708 8.71296 24.1705 8.70099 24.1703L8.7009 24.1703C8.68866 24.17 8.67628 24.1698 8.66365 24.1698C7.17966 24.1698 5.77866 24.7398 4.71366 25.7788C3.63066 26.8358 3.02467 28.2498 3.00567 29.7618ZM42.0816 12.1118C42.5476 11.9208 43.0776 11.9768 43.4926 12.2618C43.9076 12.5438 44.1546 13.0158 44.1486 13.5188L43.7306 47.4167C43.7246 47.9197 43.4666 48.3857 43.0436 48.6577C42.7976 48.8167 42.5146 48.8977 42.2306 48.8977C42.0266 48.8977 41.8216 48.8567 41.6296 48.7727L19.3096 39.0258L19.1466 39.0238L13.3286 51.9757C13.0866 52.5157 12.5506 52.8617 11.9606 52.8617H11.9426L3.38267 52.7567C2.87667 52.7507 2.40867 52.4897 2.13667 52.0627C1.86467 51.6377 1.82567 51.1027 2.03267 50.6417L7.35866 38.7868C3.15567 38.1478 -0.0533284 34.4948 0.000671532 30.1268L0.00567152 29.7238C0.0336715 27.4118 0.96167 25.2478 2.61767 23.6318C4.24766 22.0418 6.39166 21.1698 8.66365 21.1698C8.68148 21.1698 8.69955 21.17 8.71774 21.1703L8.7179 21.1703H8.71794H8.71798C8.73646 21.1705 8.75505 21.1708 8.77365 21.1708L19.5296 21.3038L42.0816 12.1118ZM51.5428 29.061L62.4138 29.195C63.2418 29.206 63.9048 29.885 63.8947 30.714C63.8858 31.536 63.2158 32.195 62.3948 32.195H62.3768L51.5058 32.061C50.6778 32.05 50.0148 31.371 50.0238 30.543C50.0338 29.72 50.7038 29.061 51.5238 29.061H51.5428ZM49.9099 23.8932C50.0969 23.8932 50.2879 23.8582 50.4719 23.7842L61.1639 19.4532C61.9309 19.1412 62.3019 18.2672 61.9909 17.4982C61.6809 16.7322 60.8059 16.3632 60.0369 16.6712L49.3459 21.0022C48.5779 21.3142 48.2079 22.1882 48.5179 22.9562C48.7549 23.5392 49.3159 23.8932 49.9099 23.8932ZM50.3055 37.3109L60.8865 41.9039C61.6465 42.2339 61.9944 43.1169 61.6645 43.8778C61.4195 44.4429 60.8675 44.7798 60.2875 44.7798C60.0885 44.7798 59.8865 44.7399 59.6915 44.6558L49.1105 40.0629C48.3505 39.7329 48.0015 38.8499 48.3315 38.0899C48.6605 37.3299 49.5405 36.9819 50.3055 37.3109Z" fill="black"/>
</svg>

<svg xmlns="http://www.w3.org/2000/svg" width="64" height="64" fill="none" viewBox="0 0 64 64"><path fill="currentColor" fill-rule="evenodd" d="m21.146 36.554 19.613 8.565.362-29.376L21.3 23.82zm-15.44 13.23 5.29.066 4.88-10.866-5.29-.064zm-2.7-20.022L3 30.164a5.667 5.667 0 0 0 5.59 5.73l1.037.013h.013l2.567.03 5.944.075.072-5.862.072-5.861-9.56-.118H8.7l-.037-.001c-1.484 0-2.885.57-3.95 1.609a5.63 5.63 0 0 0-1.708 3.983m39.076-17.65a1.49 1.49 0 0 1 1.41.15c.416.282.663.754.657 1.257l-.418 33.898a1.496 1.496 0 0 1-1.5 1.48 1.5 1.5 0 0 1-.601-.124l-22.32-9.747-.163-.002-5.818 12.952c-.242.54-.778.886-1.368.886h-.018l-8.56-.105a1.5 1.5 0 0 1-1.35-2.115l5.326-11.855c-4.203-.64-7.412-4.292-7.358-8.66l.005-.403a8.6 8.6 0 0 1 2.612-6.092 8.6 8.6 0 0 1 6.1-2.462h.056l10.756.134zm9.46 16.949 10.872.134a1.5 1.5 0 0 1-.02 3h-.017l-10.871-.134a1.5 1.5 0 0 1 .018-3zm-1.632-5.168c.187 0 .378-.035.562-.109l10.692-4.33a1.5 1.5 0 0 0 .827-1.956 1.504 1.504 0 0 0-1.954-.827l-10.691 4.331a1.5 1.5 0 0 0-.828 1.954c.237.583.798.937 1.392.937m.396 13.418 10.58 4.593a1.5 1.5 0 0 1-1.195 2.752l-10.58-4.593a1.5 1.5 0 1 1 1.195-2.752" clip-rule="evenodd"/></svg>
